Numix-GalliumOS/16/actions/image-auto-adjust.svg

<?xml version="1.0" encoding="UTF-8" standalone="no"?>
<svg
   xmlns:dc="http://purl.org/dc/elements/1.1/"
   xmlns:cc="http://creativecommons.org/ns#"
   xmlns:rdf="http://www.w3.org/1999/02/22-rdf-syntax-ns#"
   xmlns:svg="http://www.w3.org/2000/svg"
   xmlns="http://www.w3.org/2000/svg"
   xmlns:sodipodi="http://sodipodi.sourceforge.net/DTD/sodipodi-0.dtd"
   xmlns:inkscape="http://www.inkscape.org/namespaces/inkscape"
   viewBox="0 0 16 16"
   id="svg2"
   version="1.1"
   inkscape:version="0.91 r13725"
   width="100%"
   height="100%"
   sodipodi:docname="image-auto-adjust000.svg">
  <metadata
     id="metadata12">
    <rdf:RDF>
      <cc:Work
         rdf:about="">
        <dc:format>image/svg+xml</dc:format>
        <dc:type
           rdf:resource="http://purl.org/dc/dcmitype/StillImage" />
        <dc:title></dc:title>
      </cc:Work>
    </rdf:RDF>
  </metadata>
  <defs
     id="defs10" />
  <sodipodi:namedview
     pagecolor="#ffffff"
     bordercolor="#666666"
     borderopacity="1"
     objecttolerance="10"
     gridtolerance="10"
     guidetolerance="10"
     inkscape:pageopacity="0"
     inkscape:pageshadow="2"
     inkscape:window-width="1366"
     inkscape:window-height="704"
     id="namedview8"
     showgrid="false"
     inkscape:zoom="5.6568542"
     inkscape:cx="6.4296875"
     inkscape:cy="8.3309441"
     inkscape:window-x="0"
     inkscape:window-y="27"
     inkscape:window-maximized="1"
     inkscape:current-layer="svg2">
    <inkscape:grid
       type="xygrid"
       id="grid3758" />
  </sodipodi:namedview>
  <path
     inkscape:connector-curvature="0"
     id="path4157"
     style="fill:#e2b854;fill-opacity:1;fill-rule:nonzero;stroke:none"
     d="M 3.5030652,7 2.6276061,9.6269474 0,10.502995 2.6276061,11.373054 3.5030652,14 4.3785256,11.373054 7,10.502995 4.3785256,9.6269474 M 3.5030652,7" />
  <path
     inkscape:connector-curvature="0"
     id="path4159"
     style="fill:#e2b854;fill-opacity:1;fill-rule:nonzero;stroke:none"
     d="M 12.499998,3.5 11.749999,5.7488105 9.5,6.5018289 11.749999,7.2511894 12.499998,9.5 13.25,7.2511894 15.5,6.5018289 13.25,5.7488105 M 12.499998,3.5" />
  <path
     inkscape:connector-curvature="0"
     id="path4161"
     style="fill:#e2b854;fill-opacity:1;fill-rule:nonzero;stroke:none"
     d="M 9.499999,0.2 8.9241928,1.9223464 7.2,2.498034 8.9241928,3.0737218 9.499999,4.8 10.075808,3.0737218 11.8,2.498034 10.075808,1.9223464 M 9.499999,0.2" />
  <g
     id="g4171"
     transform="matrix(0.46361297,0.66088698,-0.66210795,0.46275806,21.160151,2.0032266)">
    <path
       style="opacity:1;fill:#5c6982;fill-opacity:1;stroke:none;stroke-width:0.5;stroke-linecap:round;stroke-linejoin:round;stroke-miterlimit:4;stroke-dasharray:none;stroke-opacity:1"
       d="m -7.9003906,16.000781 c -0.73015,-10e-4 -2.1015834,0.447585 -2.1006094,1.59961 C -10,18.783666 -8.6305406,19.2 -7.9003906,19.2 l 14.8005866,0 c 0.8864,0 1.599609,-0.713209 1.599609,-1.599609 0,-0.8864 -0.713209,-1.59961 -1.599609,-1.59961 z"
       id="rect4138"
       inkscape:connector-curvature="0"
       sodipodi:nodetypes="csssssc" />
    <path
       style="opacity:1;fill:#c59da1;fill-opacity:1;stroke:none;stroke-width:0.5;stroke-linecap:round;stroke-linejoin:round;stroke-miterlimit:4;stroke-dasharray:none;stroke-opacity:1"
       d="M -13.400391,16.000781 C -14.286791,16.000746 -15,16.713991 -15,17.600391 c 0,0.8864 0.713209,1.599641 1.599609,1.599609 l 5.5000004,-1.95e-4 C -8.4586656,19.199805 -9,18.462794 -9,17.600196 -9,16.737598 -8.4430406,16 -7.9003906,16.001 Z"
       id="rect4140"
       inkscape:connector-curvature="0"
       sodipodi:nodetypes="sssczcs" />
  </g>
</svg>

<svg xmlns="http://www.w3.org/2000/svg" viewBox="0 0 16 16">
 <path d="m 3.503 7 -0.875 2.627 -2.628 0.876 2.628 0.87 0.875 2.627 0.875 -2.627 2.621 -0.87 -2.621 -0.876 m -0.875 -2.627" style="fill:#e2b854;fill-opacity:1;stroke:none;fill-rule:nonzero"/>
 <path d="m 12.5 3.5 -0.75 2.249 -2.25 0.753 2.25 0.749 0.75 2.249 0.75 -2.249 2.25 -0.749 -2.25 -0.753 m -0.75 -2.249" style="fill:#e2b854;fill-opacity:1;stroke:none;fill-rule:nonzero"/>
 <path d="m 9.5 0.2 -0.576 1.722 -1.724 0.576 1.724 0.576 0.576 1.726 0.576 -1.726 1.724 -0.576 -1.724 -0.576 m -0.576 -1.722" style="fill:#e2b854;fill-opacity:1;stroke:none;fill-rule:nonzero"/>
 <g transform="matrix(0.46361297,0.66088698,-0.66210795,0.46275806,21.160151,2.0032266)">
  <path d="m -7.9 16 c -0.73 -0.001 -2.102 0.448 -2.101 1.6 c 0.001 1.183 1.37 1.6 2.101 1.6 l 14.801 0 c 0.886 0 1.6 -0.713 1.6 -1.6 0 -0.886 -0.713 -1.6 -1.6 -1.6 z" style="fill:#5c6982;opacity:1;fill-opacity:1;stroke:none"/>
  <path d="m -13.4 16 c -0.886 0 -1.6 0.713 -1.6 1.6 c 0 0.886 0.713 1.6 1.6 1.6 l 5.5 0 c -0.558 0 -1.1 -0.737 -1.1 -1.6 0 -0.863 0.557 -1.6 1.1 -1.599" style="fill:#c59da1;opacity:1;fill-opacity:1;stroke:none"/>
 </g>
</svg>
